images/Skinn®.svg

<svg width="86" height="26" viewBox="0 0 86 26" fill="none" xmlns="http://www.w3.org/2000/svg">
<path fill-rule="evenodd" clip-rule="evenodd" d="M0.0100021 20.3096C0.0100021 23.5727 2.94593 25.9958 6.6653 25.9958C10.0914 25.9958 13.3206 23.9931 13.3206 20.5036C13.3206 17.402 10.8082 15.1729 8.49269 12.9427C6.50425 11.004 4.61026 9.03273 4.61026 6.48059C4.61026 4.02493 5.65419 3.41151 6.73092 3.41151C7.93791 3.41151 8.8516 4.25139 8.8516 6.70705C8.8516 7.28896 8.81879 7.93488 8.78598 8.41931H13.1605C13.1605 5.31775 10.4523 2.95858 6.92877 2.95858C3.66674 2.95858 0.50214 4.79983 0.50214 8.12786C0.50214 11.4884 2.94891 13.7176 5.26545 15.8828C7.3205 17.8215 9.24232 19.7228 9.24232 22.3813C9.24232 24.8694 8.00253 25.5478 6.92579 25.5478C5.686 25.5478 4.60926 24.708 4.60926 22.2848C4.60926 21.6389 4.64207 20.863 4.67488 20.3155H0.0100021V20.3096ZM20.3577 25.6729V19.1458L21.7934 17.3361L26.1003 25.6719H30.7662L24.6637 13.7826L28.8722 8.5483H28.223L20.3607 18.3059V-0.0139999H15.9563V25.6729H20.3607H20.3577ZM35.6051 5.96366C35.9298 5.96583 36.2516 5.90355 36.5516 5.7805C36.8516 5.65745 37.1237 5.47612 37.3517 5.24722C37.5798 5.01833 37.7593 4.7465 37.8795 4.44778C37.9998 4.14906 38.0583 3.82952 38.0518 3.50801C38.0487 3.02541 37.9011 2.55458 37.6277 2.15507C37.3543 1.75556 36.9675 1.44531 36.516 1.26355C36.0646 1.0818 35.5689 1.03672 35.0916 1.134C34.6143 1.23128 34.1768 1.46656 33.8346 1.81007C33.4923 2.15359 33.2606 2.58992 33.1687 3.06387C33.0768 3.53782 33.129 4.02811 33.3185 4.47272C33.508 4.91733 33.8264 5.29629 34.2334 5.56168C34.6404 5.82707 35.1178 5.96696 35.6051 5.96366V5.96366ZM37.7923 25.6729V8.5483H33.3879V25.6729H37.7923V25.6729ZM50.8166 25.6729H55.221V13.4635C55.2578 12.7775 55.1507 12.0914 54.9064 11.4484C54.6621 10.8055 54.2859 10.2196 53.8015 9.72781C53.3172 9.23602 52.7352 8.84896 52.0922 8.59104C51.4493 8.33312 50.7594 8.20995 50.066 8.22928C49.0764 8.20158 48.1014 8.47056 47.2689 9.00099C46.4363 9.53141 45.7849 10.2985 45.4001 11.2019V8.5483H40.9957V25.6729H45.4001V13.0077C45.4001 11.1664 46.5753 9.80862 48.1412 9.80862C49.7071 9.80862 50.8166 11.1654 50.8166 13.0077V25.6729V25.6729ZM68.2155 25.6729H72.6198V13.4635C72.6567 12.7775 72.5495 12.0914 72.3052 11.4484C72.0609 10.8055 71.6847 10.2196 71.2004 9.72781C70.716 9.23602 70.134 8.84896 69.4911 8.59104C68.8482 8.33312 68.1582 8.20995 67.4648 8.22928C66.4752 8.20158 65.5003 8.47056 64.6677 9.00099C63.8351 9.53141 63.1838 10.2985 62.7989 11.2019V8.5483H58.3945V25.6729H62.7989V13.0077C62.7989 11.1664 63.9741 9.80862 65.54 9.80862C67.1059 9.80862 68.2155 11.1654 68.2155 13.0077V25.6729V25.6729ZM80.3449 16.8635C81.4647 16.8668 82.5603 16.5409 83.493 15.9272C84.4257 15.3135 85.1535 14.4396 85.5844 13.4159C86.0152 12.3923 86.1297 11.2651 85.9133 10.1771C85.6969 9.08899 85.1593 8.08898 84.3687 7.30364C83.5781 6.5183 82.5699 5.98295 81.4719 5.76538C80.3739 5.54781 79.2354 5.6578 78.2005 6.08142C77.1656 6.50503 76.281 7.22323 75.6585 8.14508C75.036 9.06693 74.7037 10.151 74.7037 11.26C74.6815 12.0005 74.8122 12.7378 75.0878 13.4266C75.3633 14.1154 75.7779 14.7413 76.3062 15.2659C76.8345 15.7904 77.4654 16.2027 78.1602 16.4774C78.855 16.7521 79.5991 16.8835 80.3469 16.8635H80.3449ZM80.3449 16.6596C79.2668 16.6594 78.213 16.3426 77.3166 15.7493C76.4203 15.156 75.7217 14.3127 75.3093 13.3262C74.8969 12.3397 74.789 11.2543 74.9995 10.2071C75.2099 9.15992 75.7292 8.19806 76.4916 7.44314C77.254 6.68821 78.2254 6.17414 79.2828 5.96591C80.3402 5.75768 81.4362 5.86465 82.4323 6.27329C83.4283 6.68193 84.2796 7.3739 84.8786 8.26169C85.4775 9.14948 85.7972 10.1932 85.7972 11.2609C85.8203 11.976 85.6951 12.6881 85.4294 13.3533C85.1636 14.0185 84.763 14.6227 84.2522 15.1285C83.7414 15.6344 83.1314 16.0311 82.4597 16.2943C81.788 16.5575 81.0689 16.6815 80.3469 16.6587L80.3449 16.6596ZM77.6983 14.9651H79.6798V11.322H79.9492L81.5499 14.9651H83.6736L81.8512 11.1822C82.2345 11.076 82.5734 10.8512 82.8185 10.5407C83.0635 10.2301 83.2019 9.8501 83.2133 9.45612C83.1928 9.18032 83.1166 8.91141 82.9891 8.66539C82.8616 8.41936 82.6854 8.20125 82.471 8.02405C82.2567 7.84684 82.0085 7.71415 81.7413 7.63388C81.4741 7.5536 81.1933 7.52738 80.9156 7.55678H77.6983V14.9651ZM80.0437 7.76158C80.6939 7.76158 81.1691 8.49907 81.1691 9.45612C81.1691 10.4132 80.6939 11.1201 80.0437 11.1201H79.6798V7.7606H80.0437V7.76158Z" fill="black"/>
</svg>

<svg width="86" height="26" fill="none" xmlns="http://www.w3.org/2000/svg"><path fill-rule="evenodd" clip-rule="evenodd" d="M.01 20.31c0 3.263 2.936 5.686 6.655 5.686 3.426 0 6.656-2.003 6.656-5.492 0-3.102-2.513-5.331-4.828-7.561C6.504 11.004 4.61 9.033 4.61 6.48c0-2.456 1.044-3.07 2.12-3.07 1.208 0 2.122.84 2.122 3.296 0 .582-.033 1.228-.066 1.712h4.375c0-3.101-2.709-5.46-6.232-5.46-3.262 0-6.427 1.84-6.427 5.169 0 3.36 2.447 5.59 4.763 7.755 2.056 1.939 3.977 3.84 3.977 6.498 0 2.488-1.24 3.167-2.316 3.167-1.24 0-2.317-.84-2.317-3.263 0-.646.033-1.422.066-1.97H.01v-.005Zm20.348 5.363v-6.527l1.435-1.81 4.307 8.336h4.666l-6.102-11.89 4.208-5.234h-.649l-7.862 9.758V-.014h-4.405v25.687h4.405-.003Zm15.247-19.71a2.451 2.451 0 0 0 1.747-.716 2.404 2.404 0 0 0 .7-1.739 2.423 2.423 0 0 0-.424-1.353 2.46 2.46 0 0 0-1.112-.891 2.486 2.486 0 0 0-2.681.546 2.418 2.418 0 0 0-.516 2.663c.189.444.507.823.914 1.089.407.265.885.405 1.372.402Zm2.187 19.71V8.548h-4.404v17.125h4.404Zm13.025 0h4.404v-12.21a4.93 4.93 0 0 0-.315-2.015 4.966 4.966 0 0 0-1.105-1.72 5.023 5.023 0 0 0-1.709-1.137 5.064 5.064 0 0 0-2.026-.362 4.949 4.949 0 0 0-2.797.772 4.878 4.878 0 0 0-1.869 2.2V8.549h-4.404v17.125H45.4V13.008c0-1.842 1.175-3.2 2.741-3.2s2.676 1.357 2.676 3.2v12.665Zm17.399 0h4.404v-12.21a4.927 4.927 0 0 0-.315-2.015 4.967 4.967 0 0 0-1.105-1.72 5.025 5.025 0 0 0-1.709-1.137 5.064 5.064 0 0 0-2.026-.362 4.95 4.95 0 0 0-2.797.772 4.878 4.878 0 0 0-1.87 2.2V8.549h-4.403v17.125h4.404V13.008c0-1.842 1.175-3.2 2.741-3.2s2.675 1.357 2.675 3.2v12.665Zm12.129-8.81a5.698 5.698 0 0 0 3.148-.936 5.616 5.616 0 0 0 2.091-2.511c.431-1.024.546-2.15.33-3.239a5.587 5.587 0 0 0-1.545-2.873 5.675 5.675 0 0 0-2.897-1.539 5.71 5.71 0 0 0-3.271.316 5.647 5.647 0 0 0-2.542 2.064 5.565 5.565 0 0 0-.955 3.115c-.022.74.108 1.478.384 2.167a5.44 5.44 0 0 0 1.218 1.839c.529.524 1.16.937 1.854 1.211a5.545 5.545 0 0 0 2.187.386h-.002Zm0-.203a5.49 5.49 0 0 1-3.028-.91 5.41 5.41 0 0 1-2.008-2.424 5.35 5.35 0 0 1-.31-3.119 5.382 5.382 0 0 1 1.493-2.764 5.468 5.468 0 0 1 2.79-1.477 5.5 5.5 0 0 1 3.15.307 5.44 5.44 0 0 1 2.447 1.989c.599.887.918 1.931.918 2.999a5.188 5.188 0 0 1-.368 2.092 5.23 5.23 0 0 1-1.177 1.776 5.29 5.29 0 0 1-1.792 1.165 5.331 5.331 0 0 1-2.113.365h-.002Zm-2.647-1.695h1.982v-3.643h.27l1.6 3.643h2.124l-1.823-3.783c.383-.106.722-.33.968-.641.245-.31.383-.69.394-1.085a2.048 2.048 0 0 0-.742-1.432 2.088 2.088 0 0 0-1.555-.467h-3.218v7.408Zm2.346-7.203c.65 0 1.125.737 1.125 1.694s-.475 1.664-1.125 1.664h-.364V7.76h.364v.002Z" fill="#000"/></svg>
